austria/municipalities/70723.svg

<?xml version="1.0" encoding="UTF-8"?>
<!DOCTYPE svg PUBLIC "-//W3C//DTD SVG 1.1//EN" "http://www.w3.org/Graphics/SVG/1.1/DTD/svg11.dtd">
<svg xmlns="http://www.w3.org/2000/svg" version="1.1" width="166px" height="197px" style="shape-rendering:geometricPrecision; text-rendering:geometricPrecision; image-rendering:optimizeQuality; fill-rule:evenodd; clip-rule:evenodd" xmlns:xlink="http://www.w3.org/1999/xlink">
<g><path style="opacity:1" fill="#100c0b" d="M -0.5,-0.5 C 54.5,-0.5 109.5,-0.5 164.5,-0.5C 164.667,42.168 164.5,84.8346 164,127.5C 155.536,165.465 132.369,188.465 94.5,196.5C 86.1667,196.5 77.8333,196.5 69.5,196.5C 30.6997,188.033 7.36639,164.367 -0.5,125.5C -0.5,83.5 -0.5,41.5 -0.5,-0.5 Z"/></g>
<g><path style="opacity:1" fill="#fdfdfd" d="M 164.5,-0.5 C 164.833,-0.5 165.167,-0.5 165.5,-0.5C 165.5,65.1667 165.5,130.833 165.5,196.5C 141.833,196.5 118.167,196.5 94.5,196.5C 132.369,188.465 155.536,165.465 164,127.5C 164.5,84.8346 164.667,42.168 164.5,-0.5 Z"/></g>
<g><path style="opacity:1" fill="#d43023" d="M 50.5,41.5 C 50.9528,42.4584 51.6195,43.2917 52.5,44C 48.8484,44.4986 45.1817,44.6653 41.5,44.5C 40.6618,44.8417 40.3284,45.5084 40.5,46.5C 40.6655,50.5138 40.4988,54.5138 40,58.5C 28.3679,45.1996 16.3679,32.1996 4,19.5C 3.50065,14.1771 3.33398,8.84372 3.5,3.5C 7.51383,3.33449 11.5138,3.50115 15.5,4C 27.3999,16.3958 39.0665,28.8958 50.5,41.5 Z"/></g>
<g><path style="opacity:1" fill="#fefefe" d="M 115.5,37.5 C 113.37,39.1271 111.37,40.9604 109.5,43C 90.8333,43.6667 72.1667,43.6667 53.5,43C 52.6266,41.955 51.6266,41.1217 50.5,40.5C 40.0768,27.9052 29.0768,15.7385 17.5,4C 60.1667,3.33333 102.833,3.33333 145.5,4C 134.922,14.7396 124.922,25.9062 115.5,37.5 Z"/></g>
<g><path style="opacity:1" fill="#d43023" d="M 128.5,53.5 C 126.537,54.9599 124.704,56.6266 123,58.5C 122.501,53.8452 122.334,49.1785 122.5,44.5C 118.486,44.6655 114.486,44.4988 110.5,44C 112.373,42.2962 114.04,40.4628 115.5,38.5C 126.266,27.1688 136.933,15.6688 147.5,4C 151.821,3.50098 156.154,3.33432 160.5,3.5C 160.666,8.51108 160.499,13.5111 160,18.5C 148.923,29.739 138.423,41.4057 128.5,53.5 Z"/></g>
<g><path style="opacity:1" fill="#fefefe" d="M 40.5,61.5 C 40.1706,76.676 40.5039,91.676 41.5,106.5C 41.6203,109.48 42.287,112.313 43.5,115C 42.944,115.383 42.6107,115.883 42.5,116.5C 32.3498,127.426 22.1831,138.426 12,149.5C 7.30924,140.405 4.64258,130.738 4,120.5C 3.33333,87.5 3.33333,54.5 4,21.5C 16.0042,35.0032 28.1709,48.3365 40.5,61.5 Z"/></g>
<g><path style="opacity:1" fill="#fefefe" d="M 128.5,125.5 C 125.824,121.827 123.158,118.16 120.5,114.5C 120.899,112.803 121.399,111.137 122,109.5C 122.333,93.1667 122.667,76.8333 123,60.5C 125.04,58.6298 126.873,56.6298 128.5,54.5C 139.216,43.4305 149.716,32.0972 160,20.5C 160.667,54.8333 160.667,89.1667 160,123.5C 159.067,132.235 156.733,140.568 153,148.5C 152.282,149.451 151.449,149.617 150.5,149C 143.3,140.969 135.967,133.136 128.5,125.5 Z"/></g>
<g><path style="opacity:1" fill="#070605" d="M 115.5,37.5 C 115.5,37.8333 115.5,38.1667 115.5,38.5C 114.04,40.4628 112.373,42.2962 110.5,44C 114.486,44.4988 118.486,44.6655 122.5,44.5C 122.334,49.1785 122.501,53.8452 123,58.5C 124.704,56.6266 126.537,54.9599 128.5,53.5C 128.5,53.8333 128.5,54.1667 128.5,54.5C 126.873,56.6298 125.04,58.6298 123,60.5C 122.667,76.8333 122.333,93.1667 122,109.5C 121.399,111.137 120.899,112.803 120.5,114.5C 123.158,118.16 125.824,121.827 128.5,125.5C 128.167,125.5 127.833,125.5 127.5,125.5C 125.215,122.548 122.548,119.882 119.5,117.5C 116.175,123.145 112.175,128.145 107.5,132.5C 106.508,132.328 105.842,132.662 105.5,133.5C 89.5007,144.104 73.3341,144.104 57,133.5C 54.6836,134.65 52.8502,136.317 51.5,138.5C 51.1667,138.5 50.8333,138.5 50.5,138.5C 51.5434,135.944 53.2101,133.777 55.5,132C 50.4885,128.124 46.8218,123.29 44.5,117.5C 44.1583,116.662 43.4916,116.328 42.5,116.5C 42.6107,115.883 42.944,115.383 43.5,115C 42.287,112.313 41.6203,109.48 41.5,106.5C 40.8932,95.5769 41.5598,84.9103 43.5,74.5C 52.5098,68.2752 62.5098,65.2752 73.5,65.5C 74.4014,88.2255 70.0681,109.892 60.5,130.5C 70.7922,136.602 81.7922,138.102 93.5,135C 96.7789,134.027 99.7789,132.527 102.5,130.5C 93.2491,109.828 88.9157,88.1609 89.5,65.5C 100.563,65.0358 110.563,68.0358 119.5,74.5C 119.56,75.0431 119.893,75.3764 120.5,75.5C 121.823,65.6746 121.823,56.008 120.5,46.5C 94.8324,53.1411 69.1657,53.1411 43.5,46.5C 42.8333,45.8333 42.1667,45.1667 41.5,44.5C 45.1817,44.6653 48.8484,44.4986 52.5,44C 51.6195,43.2917 50.9528,42.4584 50.5,41.5C 50.5,41.1667 50.5,40.8333 50.5,40.5C 51.6266,41.1217 52.6266,41.955 53.5,43C 72.1667,43.6667 90.8333,43.6667 109.5,43C 111.37,40.9604 113.37,39.1271 115.5,37.5 Z"/></g>
<g><path style="opacity:1" fill="#e6a41c" d="M 43.5,46.5 C 69.1657,53.1411 94.8324,53.1411 120.5,46.5C 120.827,56.015 120.494,65.3483 119.5,74.5C 110.563,68.0358 100.563,65.0358 89.5,65.5C 88.9157,88.1609 93.2491,109.828 102.5,130.5C 99.7789,132.527 96.7789,134.027 93.5,135C 81.7922,138.102 70.7922,136.602 60.5,130.5C 70.0681,109.892 74.4014,88.2255 73.5,65.5C 62.5098,65.2752 52.5098,68.2752 43.5,74.5C 42.1667,65.1667 42.1667,55.8333 43.5,46.5 Z"/></g>
<g><path style="opacity:1" fill="#866422" d="M 120.5,46.5 C 121.823,56.008 121.823,65.6746 120.5,75.5C 119.893,75.3764 119.56,75.0431 119.5,74.5C 120.494,65.3483 120.827,56.015 120.5,46.5 Z"/></g>
<g><path style="opacity:1" fill="#3c352b" d="M 41.5,44.5 C 42.1667,45.1667 42.8333,45.8333 43.5,46.5C 42.1667,55.8333 42.1667,65.1667 43.5,74.5C 41.5598,84.9103 40.8932,95.5769 41.5,106.5C 40.5039,91.676 40.1706,76.676 40.5,61.5C 41.8333,56.5 41.8333,51.5 40.5,46.5C 40.3284,45.5084 40.6618,44.8417 41.5,44.5 Z"/></g>
<g><path style="opacity:1" fill="#d43023" d="M 44.5,117.5 C 46.8218,123.29 50.4885,128.124 55.5,132C 53.2101,133.777 51.5434,135.944 50.5,138.5C 41.5214,147.813 32.5214,157.146 23.5,166.5C 19.2507,161.75 15.584,156.583 12.5,151C 22.3697,140.799 31.8697,130.299 41,119.5C 41.8159,118.177 42.9826,117.511 44.5,117.5 Z"/></g>
<g><path style="opacity:1" fill="#d43023" d="M 127.5,125.5 C 135.293,134.463 143.293,143.296 151.5,152C 148.412,156.843 145.079,161.509 141.5,166C 140.365,166.749 139.365,166.583 138.5,165.5C 128.483,154.152 118.15,143.152 107.5,132.5C 112.175,128.145 116.175,123.145 119.5,117.5C 122.548,119.882 125.215,122.548 127.5,125.5 Z"/></g>
<g><path style="opacity:1" fill="#fdfdfd" d="M -0.5,125.5 C 7.36639,164.367 30.6997,188.033 69.5,196.5C 46.1667,196.5 22.8333,196.5 -0.5,196.5C -0.5,172.833 -0.5,149.167 -0.5,125.5 Z"/></g>
<g><path style="opacity:1" fill="#fefdfd" d="M 105.5,133.5 C 108.394,134.882 110.894,136.882 113,139.5C 121.5,149.167 130,158.833 138.5,168.5C 114.777,191.179 87.1099,197.679 55.5,188C 43.8426,183.334 33.5092,176.668 24.5,168C 33.7063,158.296 42.7063,148.463 51.5,138.5C 52.8502,136.317 54.6836,134.65 57,133.5C 73.3341,144.104 89.5007,144.104 105.5,133.5 Z"/></g>
</svg>

<svg xmlns="http://www.w3.org/2000/svg" width="166" height="197" style="shape-rendering:geometricPrecision;text-rendering:geometricPrecision;image-rendering:optimizeQuality;fill-rule:evenodd;clip-rule:evenodd"><path style="opacity:1" fill="#100c0b" d="M-.5-.5h165c.167 42.668 0 85.335-.5 128-8.464 37.965-31.631 60.965-69.5 69h-25c-38.8-8.467-62.134-32.133-70-71V-.5z"/><path style="opacity:1" fill="#fdfdfd" d="M164.5-.5h1v197h-71c37.869-8.035 61.036-31.035 69.5-69 .5-42.665.667-85.332.5-128z"/><path style="opacity:1" fill="#d43023" d="M50.5 41.5c.453.958 1.12 1.792 2 2.5a60.94 60.94 0 0 1-11 .5c-.838.342-1.172 1.008-1 2a72.444 72.444 0 0 1-.5 12 990.496 990.496 0 0 0-36-39c-.5-5.323-.666-10.656-.5-16a72.438 72.438 0 0 1 12 .5 1815.389 1815.389 0 0 1 35 37.5z"/><path style="opacity:1" fill="#fefefe" d="M115.5 37.5a46.117 46.117 0 0 0-6 5.5 784.21 784.21 0 0 1-56 0 10.521 10.521 0 0 0-3-2.5A564.664 564.664 0 0 0 17.5 4a4096.23 4096.23 0 0 1 128 0 471.318 471.318 0 0 0-30 33.5z"/><path style="opacity:1" fill="#d43023" d="M128.5 53.5a38.44 38.44 0 0 0-5.5 5 98.433 98.433 0 0 1-.5-14 72.442 72.442 0 0 1-12-.5 38.47 38.47 0 0 0 5-5.5 1965.75 1965.75 0 0 0 32-34.5 84.94 84.94 0 0 1 13-.5 112.97 112.97 0 0 1-.5 15 517.134 517.134 0 0 0-31.5 35z"/><path style="opacity:1" fill="#fefefe" d="M40.5 61.5a506.865 506.865 0 0 0 1 45 22.69 22.69 0 0 0 2 8.5c-.556.383-.89.883-1 1.5a8822.338 8822.338 0 0 0-30.5 33c-4.69-9.095-7.357-18.762-8-29-.667-33-.667-66 0-99a2084.248 2084.248 0 0 0 36.5 40zM128.5 125.5a8922.94 8922.94 0 0 1-8-11 43.145 43.145 0 0 1 1.5-5l1-49a46.107 46.107 0 0 0 5.5-6 1060.147 1060.147 0 0 0 31.5-34c.667 34.333.667 68.667 0 103a77.677 77.677 0 0 1-7 25c-.718.951-1.551 1.117-2.5.5a743.125 743.125 0 0 0-22-23.5z"/><path style="opacity:1" fill="#070605" d="M115.5 37.5v1a38.47 38.47 0 0 1-5 5.5c3.986.499 7.986.666 12 .5a98.433 98.433 0 0 0 .5 14 38.44 38.44 0 0 1 5.5-5v1a46.107 46.107 0 0 1-5.5 6l-1 49a43.145 43.145 0 0 0-1.5 5 8922.94 8922.94 0 0 0 8 11h-1c-2.285-2.952-4.952-5.618-8-8-3.325 5.645-7.325 10.645-12 15-.992-.172-1.658.162-2 1-16 10.604-32.166 10.604-48.5 0-2.316 1.15-4.15 2.817-5.5 5h-1c1.043-2.556 2.71-4.723 5-6.5-5.011-3.876-8.678-8.71-11-14.5-.342-.838-1.008-1.172-2-1 .11-.617.444-1.117 1-1.5a22.69 22.69 0 0 1-2-8.5c-.607-10.923.06-21.59 2-32 9.01-6.225 19.01-9.225 30-9 .901 22.725-3.432 44.392-13 65 10.292 6.102 21.292 7.602 33 4.5a28.533 28.533 0 0 0 9-4.5c-9.25-20.672-13.584-42.34-13-65 11.063-.464 21.063 2.536 30 9 .06.543.393.876 1 1 1.323-9.825 1.323-19.492 0-29-25.668 6.641-51.334 6.641-77 0l-2-2a60.94 60.94 0 0 0 11-.5c-.88-.708-1.547-1.542-2-2.5v-1a10.521 10.521 0 0 1 3 2.5 784.21 784.21 0 0 0 56 0 46.117 46.117 0 0 1 6-5.5z"/><path style="opacity:1" fill="#e6a41c" d="M43.5 46.5c25.666 6.641 51.332 6.641 77 0 .327 9.515-.006 18.848-1 28-8.937-6.464-18.937-9.464-30-9-.584 22.66 3.75 44.328 13 65a28.533 28.533 0 0 1-9 4.5c-11.708 3.102-22.708 1.602-33-4.5 9.568-20.608 13.901-42.275 13-65-10.99-.225-20.99 2.775-30 9a98.502 98.502 0 0 1 0-28z"/><path style="opacity:1" fill="#866422" d="M120.5 46.5c1.323 9.508 1.323 19.175 0 29-.607-.124-.94-.457-1-1 .994-9.152 1.327-18.485 1-28z"/><path style="opacity:1" fill="#3c352b" d="m41.5 44.5 2 2a98.502 98.502 0 0 0 0 28c-1.94 10.41-2.607 21.077-2 32a506.865 506.865 0 0 1-1-45c1.333-5 1.333-10 0-15-.172-.992.162-1.658 1-2z"/><path style="opacity:1" fill="#d43023" d="M44.5 117.5c2.322 5.79 5.989 10.624 11 14.5-2.29 1.777-3.957 3.944-5 6.5-8.979 9.313-17.979 18.646-27 28a84.335 84.335 0 0 1-11-15.5A633.67 633.67 0 0 0 41 119.5c.816-1.323 1.983-1.989 3.5-2zM127.5 125.5a886.431 886.431 0 0 0 24 26.5 163.431 163.431 0 0 1-10 14c-1.135.749-2.135.583-3-.5a728.757 728.757 0 0 0-31-33c4.675-4.355 8.675-9.355 12-15 3.048 2.382 5.715 5.048 8 8z"/><path style="opacity:1" fill="#fdfdfd" d="M-.5 125.5c7.866 38.867 31.2 62.533 70 71h-70v-71z"/><path style="opacity:1" fill="#fefdfd" d="M105.5 133.5c2.894 1.382 5.394 3.382 7.5 6l25.5 29c-23.723 22.679-51.39 29.179-83 19.5-11.657-4.666-21.99-11.332-31-20a1112.462 1112.462 0 0 0 27-29.5c1.35-2.183 3.184-3.85 5.5-5 16.334 10.604 32.5 10.604 48.5 0z"/></svg>
